X: 127
T: Schubkarrn (Bb)
R: zwiefacher
M: 23/44
L: 1/8
K: Bb
"A"\
|: "Bb"[dB][ec] [fd][ge] [f2d2] | [dB][ec] [fd][ge] [f2d2] \
| "F7"[e2c2] [c2A2] | "Bb"[d2B2] [B2F2] \
|  "Bb"[dB][ec] [fd][ge] [f2d2] | [dB][ec] [fd][ge] [f2d2] \
| "F7"[e2c2] [c2A2] |  "Bb"[B2B2] z2 :|
"B"\
|:"Eb"[g2e2] [^fd][ge] | "Bb"[f2d2] [=e^c][fd] \
| "F7"[e2c2] [d=B][ec] | "Bb"[d2B2] [^cA][dB] \
"I"\
| "Eb"[g2e2] [^fd][ge] | "Bb"[f2d2] [=e^c][fd] \
|1 "F7"[e2c2] [d=B][ec] | "Bb"[d2B2] z2 \
:|2  "F7"[a2e2] [gf][ae] | "Bb"[b2d2] z2 |]
%%sep 2 1 500
